X:1
T:Title
%%score { ( 1 3 ) | ( 2 4 ) }
L:1/8
M:6/8
K:Eb
V:1 treble nm="Grand Piano"
V:3 treble 
V:2 bass 
V:4 bass 
V:1
 z3 z2[Q:1/4=100] [GB] | [GB]2 G G2 [Ge] | [_Gd]2 [Gc] [B,=GB]2 [B,G] | z3 .[CA]3 | %4
 [B,EG]3- [B,EG]2 [B,GB] | [B,GB]2 [B,G] [B,G]2 [Ge] | [_Gd]2 [Gc] B2 B | B2 B =AGA | %8
[M:5/8] [DB]-[DB]- [DB]3 |[M:1/8] [DB] |[M:3/4] c3 B2 [DB] | c3 B2 [EB] | [Fd]2 [Ec] [DB]2 [DA] | %13
 [EG]4- [EG][EB] | [Ec]2 [Ec]d c[Fd] | z2 z F z2 | [EB]2 [Ec]d c[Ad] |[M:5/8] [Ge]-[Ge]- [Ge]3 |] %18
V:2
 z3 z2 [E,B,] | [E,B,]2 [E,B,] [E,B,]2 [E,B,] | [E,=A,]2 [E,A,] E,2 E, | D,2 B,, z B,B,, | %4
 E,3- E,2 E, | E,2 E, E,2 [E,B,] | [D,=A,]2 [D,D][K:treble] [G,DG]2 [G,_D=E] | %7
 [F,DF]2 [F,DF] [F,CE]2 [F,CE] |[M:5/8] [B,,B,]-[B,,B,]- [B,,B,]3 |[M:1/8] [B,,B,] | %10
[M:3/4] [B,,A,]4- [B,,A,][B,,A,] | [B,,G,]4- [B,,G,][B,,G,] | [B,,F,]2 [B,,B,] [B,,B,]2 [B,,B,] | %13
 [E,B,]4- [E,B,][E,G,] | [A,,A,]2 [A,,A,] [F,,A,F]2 [B,,A,] | %15
 [C,G,]2 .C,2[K:treble] d[K:bass][=A,,_G,] | [B,,G,]2 [B,,G,] [B,,F,]2 [B,,F,] | %17
[M:5/8] [E,B,]-[E,B,]- [E,B,]3 |] %18
V:3
 x6 | x6 | x6 | [B,FB]2 [B,DF] D-[DG][B,DF] | x6 | x6 | x6 | x6 |[M:5/8] x5 |[M:1/8] x | %10
[M:3/4] D6 | E6 | x6 | x6 | x6 | [Ee]2 [G,EG] [A,C]2 [Ec] | z2 z .F3 |[M:5/8] x5 |] %18
V:4
 x6 | x6 | x6 | z3 .B,,3 | x6 | x6 | x3[K:treble] x3 | x6 |[M:5/8] x5 |[M:1/8] x |[M:3/4] x6 | x6 | %12
 x6 | x6 | x6 | z2 z .A,,3[K:treble][K:bass] | x6 |[M:5/8] x5 |] %18

